!!!!SEGMENT: pl-kk--kk-i-40--012-001_croce-giovanni--missa-decantabat-populq-kyrie.krn
!!!cenid: 16xx:1323
!!!COM: Croce, Giovanni
!!!COM-rismid: pe30000764
!!!CDT: 1557-1609/05/15
!!!CNT: Italian
!!!OPR: Missa Decantabat Populq
!!!OTL: Kyrie
!!!OMV: 001
!!!PDT:
!!!AGN: Sacred; Mass
!!!SMS-siglum: PL-Kk
!!!SMS-shelfmark: Kk.I.40
!!!SMS-shelfwork: 012-001 M
!!!SMS-variant:
!!!SMS-altvar:
!!!NIFC-rismid: 1001154535
!!!URL-scan: http://repozytorium.nifc.pl/skany/pl-kk-nut--i-40
!!!ONB-nifc: UWAGA: części Mszy: 1. Kyrie, 2. Et in terra, 3. Sanctus, 4. Agnus Dei. Skan 0016-0017
**kern	**text
*Iempty	*
*I"Baſso Ripieno.	*
*I'b rip	*
*clefF4	*
*k[b-]	*
*c:	*
*>[A,B,A]	*
*M2/1	*
*met(C|)	*
=1-	=1-
*>A	*
!LO:TX:a:t=MJSSA\nDecantabat Popul(us)	!
!LO:TX:a:t=8. Vocum	!
00r	.
=2-	=2-
.	.
=3-	=3-
!LO:TX:t=P:problem:kreska pseudotaktowa	!
1r	.
!	!
*2\right	*
2.G\	Ky-
4G\	-ri-
=4-	=4-
2G\	-e
!LO:TX:t=P:problem:kreska pseudotaktowa	!
2D\	e-
2F\	-lei-
2E-X\	.
=5-	=5-
1D	.
2GG,</	-son
*	*ij
1G\	Ky-
=6-	=6-
.	.
!LO:TX:t=P:problem:kreska pseudotaktowa	!
2G\	-ri-
2F\	-e
2C/	e-
=7-	=7-
1D	-lei-
!LO:TX:t=P:problem:kreska pseudotaktowa	!
1GG	-son
*	*Xij
=8-	=8-
0r	.
=9-	=9-
!LO:TX:t=P:problem:kreska pseudotaktowa	!
1r	.
2.G\	Ky-
4G\	-ri-
=10-	=10-
2D\	-e
!LO:TX:t=P:problem:kreska pseudotaktowa	!
2F\	.
!LO:LB:g=original	!
1E-X	e-
=11-	=11-
1D	-lei-
!LO:TX:t=P:problem:kreska pseudotaktowa	!
1GG	-son
=12-	=12-
0r	.
=13-	=13-
2r	.
2D\	Ky-
2.G\	-ri-
!LO:TX:t=P:problem:kreska pseudotaktowa	!
4F\	-e
=14-	=14-
4Eny\	.
4D\	.
!LO:TX:t=P:problem:kreska pseudotaktowa	!
2C/	.
2.F\	e-
4E\	.
=15-	=15-
!LO:TX:t=P:problem:kreska pseudotaktowa	!
1D	.
1G	-lei-
=16-	=16-
0D	.
=17-	=17-
0G;	-son
=18||-	=18||-
*>B	*
*M2/1	*
*met(C|)	*
00r	.
=19-	=19-
.	.
=20-	=20-
00r	.
=21-	=21-
.	.
=22-	=22-
00r	.
=23-	=23-
.	.
=24-	=24-
!LO:TX:t=P:problem:kreska pseudotaktowa	!
0r	.
=25-	=25-
2.D\	Chri-
4E\	.
2F\	-ste
!LO:TX:t=P:problem:kreska pseudotaktowa	!
2D\	.
=26-	=26-
2G\	e-
2G\	-lei-
!LO:TX:t=P:problem:kreska pseudotaktowa	!
1E-X	.
=27-	=27-
2D,<\	-son
*	*ij
1D	Chri-
!LO:TX:t=P:problem:kreska pseudotaktowa	!
2BB-/	-ste
=28-	=28-
2C/	e-
2C/	-lei-
1D	-son
*	*Xij
=29-	=29-
!LO:TX:t=P:problem:kreska pseudotaktowa	!
1GG	.
!LO:LB:g=original	!
2r	.
2GG/	x-
=30-	=30-
2D\	-te
!LO:TX:t=P:problem:kreska pseudotaktowa	!
2D\	e-
2C#X/	-lei-
2D/	.
=31-	=31-
!LO:TX:t=P:problem:kreska pseudotaktowa	!
1GG	-son
2r	.
*	*ij
2GG/	x-
=32-	=32-
2D\	-te
!LO:TX:t=P:problem:kreska pseudotaktowa	!
2D\	.
2C#X/	e-
2D/	-lei-
=33-	=33-
!LO:TX:t=P:problem:kreska pseudotaktowa	!
1GG	-son
*	*Xij
1r	.
=34-	=34-
2r	.
2D\	Chri-
2.G\	-ste
4F\	.
=35-	=35-
4E-X\	.
4D\	.
!LO:TX:t=P:problem:kreska pseudotaktowa	!
2Cny/	e-
1D	-lei-
=36-	=36-
2GG,</	-son
*	*ij
2G\	Chri-
2GG/	-ste
!LO:TX:t=P:problem:kreska pseudotaktowa	!
2G\	e-
=37-	=37-
0D	-lei-
=38-	=38-
!LO:TX:b:i:t=Kyrie da Capo.	!
0GG;	-son
==	==
*-	*-
!!!RDF**kern: < = below
!!!EED: Andrzej Borzym
!!!EST: 2021-08-02
!!!ENC: Anastazja Marusiak
!!!END: 2021-07-05
